src/lib/packages/icons/src/assets/line/basketball.svg

<svg width="24" height="24" viewBox="0 0 24 24" fill="none" xmlns="http://www.w3.org/2000/svg">
<path d="M19.62 19.57C21.55 17.63 22.75 14.95 22.75 12C22.75 9.05 21.55 6.36999 19.62 4.42999C19.62 4.42999 19.61 4.40999 19.6 4.39999C19.59 4.38999 19.58 4.39 19.57 4.38C17.63 2.45 14.95 1.25 12 1.25C9.05 1.25 6.36999 2.45 4.42999 4.38C4.42999 4.38 4.40999 4.38999 4.39999 4.39999C4.38999 4.40999 4.39 4.41999 4.38 4.42999C2.45 6.36999 1.25 9.05 1.25 12C1.25 14.95 2.45 17.63 4.38 19.57C4.38 19.57 4.38999 19.59 4.39999 19.6C4.40999 19.61 4.41999 19.61 4.42999 19.62C6.36999 21.55 9.05 22.75 12 22.75C14.95 22.75 17.63 21.55 19.57 19.62C19.57 19.62 19.59 19.61 19.6 19.6C19.61 19.59 19.61 19.58 19.62 19.57ZM2.78999 12.79C4.75999 12.96 6.56 13.74 7.98 14.96L4.96001 17.98C3.75001 16.55 2.95999 14.76 2.78999 12.79ZM4.96001 6.02L10.94 12L9.03999 13.9C7.33999 12.42 5.17 11.47 2.78 11.29C2.93 9.28999 3.72 7.46 4.95 6.02H4.96001ZM21.21 11.21C19.24 11.04 17.44 10.26 16.02 9.03999L19.04 6.02C20.25 7.45 21.04 9.24001 21.21 11.21ZM14.96 7.98C13.75 6.55 12.96 4.75999 12.79 2.78999C14.76 2.95999 16.56 3.74001 17.98 4.96001L14.96 7.98ZM13.9 9.03999L12 10.94L6.02 4.96001C7.46 3.73001 9.28999 2.93999 11.29 2.78999C11.46 5.17999 12.42 7.34 13.9 9.05V9.03999ZM9.05 16.02C10.26 17.45 11.05 19.24 11.22 21.21C9.25 21.04 7.45 20.26 6.03 19.04L9.05 16.02ZM10.11 14.96L12.01 13.06L17.99 19.04C16.55 20.27 14.72 21.06 12.72 21.21C12.55 18.82 11.59 16.66 10.11 14.95V14.96ZM13.07 12L14.97 10.1C16.67 11.58 18.84 12.53 21.23 12.71C21.08 14.71 20.29 16.54 19.06 17.98L13.08 12H13.07Z" fill="currentColor"/>
</svg>

<svg xmlns="http://www.w3.org/2000/svg" width="24" height="24" fill="none"><path fill="currentColor" d="M19.62 19.57c1.93-1.94 3.13-4.62 3.13-7.57s-1.2-5.63-3.13-7.57c0 0-.01-.02-.02-.03-.01-.01-.02-.01-.03-.02A10.714 10.714 0 0 0 12 1.25c-2.95 0-5.63 1.2-7.57 3.13 0 0-.02.01-.03.02-.01.01-.01.02-.02.03A10.714 10.714 0 0 0 1.25 12c0 2.95 1.2 5.63 3.13 7.57 0 0 .01.02.02.03.01.01.02.01.03.02 1.94 1.93 4.62 3.13 7.57 3.13s5.63-1.2 7.57-3.13c0 0 .02-.01.03-.02.01-.01.01-.02.02-.03ZM2.79 12.79c1.97.17 3.77.95 5.19 2.17l-3.02 3.02a9.25 9.25 0 0 1-2.17-5.19Zm2.17-6.77L10.94 12l-1.9 1.9c-1.7-1.48-3.87-2.43-6.26-2.61.15-2 .94-3.83 2.17-5.27h.01Zm16.25 5.19a9.152 9.152 0 0 1-5.19-2.17l3.02-3.02a9.25 9.25 0 0 1 2.17 5.19Zm-6.25-3.23a9.25 9.25 0 0 1-2.17-5.19c1.97.17 3.77.95 5.19 2.17l-3.02 3.02ZM13.9 9.04l-1.9 1.9-5.98-5.98a9.16 9.16 0 0 1 5.27-2.17 10.7 10.7 0 0 0 2.61 6.26v-.01Zm-4.85 6.98a9.25 9.25 0 0 1 2.17 5.19 9.152 9.152 0 0 1-5.19-2.17l3.02-3.02Zm1.06-1.06 1.9-1.9 5.98 5.98a9.16 9.16 0 0 1-5.27 2.17c-.17-2.39-1.13-4.55-2.61-6.26v.01ZM13.07 12l1.9-1.9c1.7 1.48 3.87 2.43 6.26 2.61-.15 2-.94 3.83-2.17 5.27L13.08 12h-.01Z"/></svg>
